common/svg/reddit-icon.svg

<svg fill="none" height="20" viewBox="0 0 20 20" width="20" xmlns="http://www.w3.org/2000/svg"><path clip-rule="evenodd" d="m14.4658 2.63416c-.014.08978-.0214.1819-.0214.27577 0 .94784.7462 1.71622 1.6667 1.71622s1.6667-.76838 1.6667-1.71622c0-.94783-.7462-1.71621-1.6667-1.71621-.4101 0-.7857.15256-1.076.40559l-4.3282-1.09931-1.56434 6.44333c-2.08101.14101-3.95258.78997-5.36445 1.76971-.40086-.40483-.95006-.65446-1.55589-.65446-1.227297 0-2.22222 1.0245-2.22222 2.28832 0 .8795.481842 1.6431 1.18853 2.0261-.05107.273-.07742.5514-.07742.8342 0 3.4754 3.97969 6.2928 8.88889 6.2928s8.8889-2.8174 8.8889-6.2928c0-.2828-.0264-.5612-.0774-.8342.7067-.383 1.1885-1.1466 1.1885-2.0261 0-1.26382-.9949-2.28832-2.2222-2.28832-.6058 0-1.155.24963-1.5559.65446-1.5382-1.06739-3.622-1.74217-5.9278-1.79523l1.2212-5.03033zm-8.35469 11.14514c.92048 0 1.66667-.7684 1.66667-1.7162 0-.9479-.74619-1.7162-1.66667-1.7162-.92047 0-1.66667.7683-1.66667 1.7162 0 .9478.7462 1.7162 1.66667 1.7162zm7.77779 0c.9205 0 1.6667-.7684 1.6667-1.7162 0-.9479-.7462-1.7162-1.6667-1.7162s-1.6667.7683-1.6667 1.7162c0 .9478.7462 1.7162 1.6667 1.7162zm-7.46962 1.8123c-.2553-.1753-.60022-.1042-.77042.1586-.17019.2629-.10121.6181.15408.7934 1.20899.8299 2.70302 1.2449 4.19706 1.2449 1.494 0 2.9881-.415 4.1971-1.2449.2553-.1753.3242-.5305.154-.7934-.1702-.2628-.5151-.3339-.7704-.1586-1.0223.7018-2.3015 1.0527-3.5807 1.0527-.75859 0-1.51719-.1234-2.22222-.3702-.48383-.1694-.94243-.3969-1.3585-.6825z" fill="#000" fill-rule="evenodd"/></svg>

<svg width="20" height="20" viewBox="0 0 20 20" fill="none" xmlns="http://www.w3.org/2000/svg">
<path fill-rule="evenodd" clip-rule="evenodd" d="M14.4658 2.63416C14.4518 2.72394 14.4444 2.81606 14.4444 2.90993C14.4444 3.85777 15.1906 4.62615 16.1111 4.62615C17.0316 4.62615 17.7778 3.85777 17.7778 2.90993C17.7778 1.9621 17.0316 1.19372 16.1111 1.19372C15.701 1.19372 15.3254 1.34628 15.0351 1.59931L10.7069 0.5L9.14256 6.94333C7.06155 7.08434 5.18998 7.7333 3.77811 8.71304C3.37725 8.30821 2.82805 8.05858 2.22222 8.05858C0.994923 8.05858 0 9.08308 0 10.3469C0 11.2264 0.481842 11.99 1.18853 12.373C1.13746 12.646 1.11111 12.9244 1.11111 13.2072C1.11111 16.6826 5.0908 19.5 10 19.5C14.9092 19.5 18.8889 16.6826 18.8889 13.2072C18.8889 12.9244 18.8625 12.646 18.8115 12.373C19.5182 11.99 20 11.2264 20 10.3469C20 9.08308 19.0051 8.05858 17.7778 8.05858C17.172 8.05858 16.6228 8.30821 16.2219 8.71304C14.6837 7.64565 12.5999 6.97087 10.2941 6.91781L11.5153 1.88748L14.4658 2.63416ZM6.11111 13.7793C7.03159 13.7793 7.77778 13.0109 7.77778 12.0631C7.77778 11.1152 7.03159 10.3469 6.11111 10.3469C5.19064 10.3469 4.44444 11.1152 4.44444 12.0631C4.44444 13.0109 5.19064 13.7793 6.11111 13.7793ZM13.8889 13.7793C14.8094 13.7793 15.5556 13.0109 15.5556 12.0631C15.5556 11.1152 14.8094 10.3469 13.8889 10.3469C12.9684 10.3469 12.2222 11.1152 12.2222 12.0631C12.2222 13.0109 12.9684 13.7793 13.8889 13.7793ZM6.41928 15.5916C6.16398 15.4163 5.81906 15.4874 5.64886 15.7502C5.47867 16.0131 5.54765 16.3683 5.80294 16.5436C7.01193 17.3735 8.50596 17.7885 10 17.7885C11.494 17.7885 12.9881 17.3735 14.1971 16.5436C14.4524 16.3683 14.5213 16.0131 14.3511 15.7502C14.1809 15.4874 13.836 15.4163 13.5807 15.5916C12.5584 16.2934 11.2792 16.6443 10 16.6443C9.24141 16.6443 8.48281 16.5209 7.77778 16.2741C7.29395 16.1047 6.83535 15.8772 6.41928 15.5916Z" fill="black"/>
</svg>
